icons/light-bulb-16.svg

<svg width="16" height="16" viewBox="0 0 16 16" xmlns="http://www.w3.org/2000/svg">
  <path fill-rule="evenodd" clip-rule="evenodd" d="M8 1.5C5.63731 1.5 4 3.19074 4 5.25012C4 6.23377 4.42403 6.87528 4.98447 7.55371C5.05112 7.63439 5.12301 7.71927 5.1976 7.80732C5.42078 8.07081 5.66802 8.3627 5.87055 8.65525C6.15526 9.06649 6.40778 9.55128 6.49246 10.1441C6.55104 10.5541 6.26612 10.934 5.85607 10.9926C5.44602 11.0512 5.06612 10.7662 5.00754 10.3562C4.96722 10.074 4.84474 9.80875 4.63726 9.50906C4.47951 9.2812 4.30278 9.07249 4.0961 8.82841L4.09599 8.82829C4.01188 8.72895 3.9228 8.62376 3.82803 8.50903C3.20097 7.74996 2.5 6.76647 2.5 5.25012C2.5 2.30951 4.86269 0 8 0C11.1373 0 13.5 2.30951 13.5 5.25012C13.5 6.76647 12.799 7.74996 12.172 8.50903C12.0773 8.62367 11.9883 8.72878 11.9042 8.82805L11.904 8.82833L11.9039 8.82841L11.9039 8.82846L11.9038 8.82854C11.6972 9.07256 11.5205 9.28124 11.3627 9.50906C11.1553 9.80875 11.0328 10.074 10.9925 10.3562C10.9339 10.7662 10.554 11.0512 10.1439 10.9926C9.73388 10.934 9.44896 10.5541 9.50754 10.1441C9.59222 9.55128 9.84474 9.06649 10.1294 8.65525C10.332 8.3627 10.5792 8.07081 10.8024 7.80732C10.877 7.71927 10.9489 7.63439 11.0155 7.55371C11.576 6.87528 12 6.23377 12 5.25012C12 3.19074 10.3627 1.5 8 1.5ZM6 15.25C6 14.8358 6.33579 14.5 6.75 14.5H9.25C9.66421 14.5 10 14.8358 10 15.25C10 15.6642 9.66421 16 9.25 16H6.75C6.33579 16 6 15.6642 6 15.25ZM5.75 12C5.33579 12 5 12.3358 5 12.75C5 13.1642 5.33579 13.5 5.75 13.5H10.25C10.6642 13.5 11 13.1642 11 12.75C11 12.3358 10.6642 12 10.25 12H5.75Z"/>
</svg>

<svg xmlns="http://www.w3.org/2000/svg" width="16" height="16" viewBox="0 0 16 16"><path fill-rule="evenodd" d="M8 1.5c-2.363 0-4 1.69-4 3.75 0 .984.424 1.625.984 2.304l.214.253c.223.264.47.556.673.848.284.411.537.896.621 1.49a.75.75 0 01-1.484.211c-.04-.282-.163-.547-.37-.847a8.695 8.695 0 00-.542-.68c-.084-.1-.173-.205-.268-.32C3.201 7.75 2.5 6.766 2.5 5.25 2.5 2.31 4.863 0 8 0s5.5 2.31 5.5 5.25c0 1.516-.701 2.5-1.328 3.259-.095.115-.184.22-.268.319-.207.245-.383.453-.541.681-.208.3-.33.565-.37.847a.75.75 0 01-1.485-.212c.084-.593.337-1.078.621-1.489.203-.292.45-.584.673-.848.075-.088.147-.173.213-.253.561-.679.985-1.32.985-2.304 0-2.06-1.637-3.75-4-3.75zM6 15.25a.75.75 0 01.75-.75h2.5a.75.75 0 010 1.5h-2.5a.75.75 0 01-.75-.75zM5.75 12a.75.75 0 000 1.5h4.5a.75.75 0 000-1.5h-4.5z"/></svg>
